X:1
T:James Gibb editions
T:Altro non è'l mi'amor - Festa
T:#
%%score [ 1 2 3 ]
L:1/8
Q:1/4=108
M:4/4
K:Bb
V:1 treble nm="Soprano" snm="S"
V:2 treble nm="Alto" snm="A"
V:3 bass nm="Bass" snm="B"
V:1
"^Altro non è'l mi'amor""^Costanzo Festa\n(1490-1545)" z4 G4 | c2 c2 d2 d2 | B2 e2 c2 c2 | (f4 d4 | %4
w: Al-|tro non è'l mi'a-|mor che'l pa- ra-|di\- *|
 e3 d c4- | c2 B2 A4) |[M:4/4] G8- | G4 z4 | d4 e2 e2 | c2 c2 B2 c2 | d2 e2 c4 | B8- | B4 z4 | %13
w: ||so:||che'l pa- ra-|di- s'è~un sol som-|mo di- let-|to||
 d4 e2 e2 | c2 c2 B2 c2 | d2 e2 c4 | B4 z4 | B4 B2 B2 | c4 c2 d2- | d2 d2 e4 | c4 (d4 | c3 B A4) | %22
w: qual pren- d'in|ve- der Dio cia-|scun e- let-|to,|né al- tro|gau- di'è nel\-|* l'e- ter-|no ri\-||
 G8 | z4 d4 | d2 d2 c2 c2 | d4 G4- | G4 B4 | B3 c d2 (c2- | c2 B4 A2) | B4 d4 | d2 d2 d2 d2 | %31
w: so.|A-|dun- qu'il pa- ra-|di- so|* è'l|mi' a- mor ve\-||ro che|con som- ma le-|
 (B3 c d2 e2) | c2 f2 d2 e2- | e2 (d4 c2) | d4 A4 | (B3 c) d4- | d2 d2 c4 | e8 | (d3 c B2) A2 | %39
w: ti\- * * *|zia al cor u\-|* ni\- *|ta, o-|gn'hor * veg\-|* gio'l mio|sol|va\- * * go|
 B2 G2 A4 | G8 | d8 | B2 c2 d2 e2 | f2 d2 e2 (c2- | cB) (B4- A2 | B4 c4) | B4 z2 c2 | d2 d2 e2 e2 | %48
w: ed al- te-|ro.|Ahi|pos- san- za d'a-|mor, tan- t'in- fi\-|* * ni\- *||ta, che'l|pa- ra- di- s'an-|
[Q:1/4=106] (f3[Q:1/4=105] e[Q:1/4=103] d4- | %49
w: cor * *|
[Q:1/4=101] d2)[Q:1/4=100] c2[Q:1/4=99] B2[Q:1/4=97] (c2- | %50
w: * con- de- d'in|
[Q:1/4=96] c[Q:1/4=96]B)[Q:1/4=95] (A[Q:1/4=94]G[Q:1/4=93] A4) |[Q:1/4=92] !fermata!G8 |] %52
w: * * vi\- * *|ta.|
V:2
 D4 G2 G2 | A2 A2 F4 | B4 (c3 B | AG F4) B2 | (G2 c3 BAG | A2 G4 ^F2) |[M:4/4] G4 z2 G2 | %7
w: Al- tro non|è'l mi'a- mor|che'l pa\- *|* * * ra-|di\- * * * *||so: che'l|
 B2 B2 G2 G2 | F2 F2 G2 (B2- | B2 A2 G2 c2- | cB) (B4 A2) | B4 z2 B2 | B2 B2 G2 G2 | %13
w: pa- ra- di- s'è~~un|sol som- mo di\-||* * let\- *|to qual|pren- d'in ve- der|
 F2 F2 G2 (B2- | B2 A2 G2 c2- | cB) (B4 A2) | B4 F4 | F2 F2 G4 | G2 A4 A2 | B4 G2 (c2- | %20
w: Dio cia- scun e\-||* * let\- *|to, né|al- tro gau-|di'è nel- l'e-|ter- no ri\-|
 cBAG F2 B2 | A2 G4 ^F2) | G8- | G4 z4 | G4 G2 G2 | F2 F2 (G3 F | E4 D4- | D4 F4 | D2 E2 C4 | %29
w: ||so.||A- dun- qu'il|pa- ra- di\- *|* so|* è'l|mi'a- mor ve-|
 B,4 F4 | F2 F2 F2 F2 | B8 | A4 B4 | A2 F2 G4 | F8 | D4 F3 G | A2 B2 c4 | G4 B3 A) | %38
w: ro che|con som- ma le-|ti-|zia al|cor u- ni-|ta,|o- gn'hor veg-|gio'l mio sol|va\- * *|
 G2 F2 G2 (A2- | AG G4 ^F2) | G8 | F8 | F2 F2 G2 B2 | A2 F2 G2 A2 | (B4- c4 | F2 B4 A2) | B4 z4 | %47
w: go ed al- te\-||ro.|Ahi|pos- san- za d'a-|mor, tan- t'in- fi-|ni\- *||ta,|
 F4 G2 G2 | A2 A2 (B3 A | G2) F2 G2 (A2- | AG) (G4 ^F2) | !fermata!G8 |] %52
w: che'l pa- ra-|di- s'an- cor *|* con- de- d'in|* * vi\- *|ta.|
V:3
 z8 | z4 D,4 | G,2 G,2 A,2 A,2 | F,4 B,4 | (C3 B,A,G, F,2- | F,2) G,2 D,4 |[M:4/4] G,8 | z4 G,4 | %8
w: |Al-|tro non è'l mi'a-|mor che'l|pa\- * * * *|* ra- di-|so:|che'l|
 B,2 B,2 G,2 G,2 | F,2 F,2 G,2 A,2 | (B,2 G,2 F,4) | B,,8 | z4 B,4 | B,2 B,2 G,2 G,2 | %14
w: pa- ra- di- s'è~~un|sol som- mo di-|let\- * *|to|qual|pren- d'in ve- der|
 F,2 F,2 G,2 A,2 | (B,2 G,2 F,4) | B,,4 z2 B,,2 | B,,2 B,,2 E,4 | C,2 F,4 D,2 | G,4 C,4 | %20
w: Dio cia- scun e-|let\- * *|to, né|al- tro gau-|di'è nel- l'e-|ter- no|
 (F,3 E, D,2 B,,2 | C,4 D,4) | G,4 z2 G,2 | G,2 G,2 F,2 F,2 | G,4 E,4 | D,2 D,2 (E,3 D,) | %26
w: ri\- * * *||so. A-|dun- qu'il pa- ra-|di- so|è'l mi'a- mor *|
 C,4 B,,4- | B,,2 B,4 A,2 | B,2 G,2 F,4 | B,,4 B,4 | B,2 B,2 B,2 B,2 | G,8 | F,4 G,4 | %33
w: ve- ro|* è'l mi'|a- mor ve-|ro che|con som- ma le-|ti-|zia al|
 F,2 D,2 E,4 | D,8 | z4 D,4 | F,2 G,2 A,3 B, | C4 (G,4 | B,3 A, G,2) F,2 | G,2 E,2 D,4 | G,8 | %41
w: cor u- ni-|ta,|o-|gn'hor veg- gio'l mio|sol va\-|* * * go|ed al- te-|ro.|
 B,8 | B,2 A,2 G,2 G,2 | F,2 B,,2 E,2 F,2 | (D,2 E,2 C,4) | B,,4 F,4 | G,2 G,2 A,2 A,2 | %47
w: Ahi|pos- san- za d'a-|mor, tan- t'in- fi-|ni\- * *|ta, che'l|pa- ra- di- s'an-|
 (B,3 A, G,4 | F,2) F,2 (B,4- | B,2 A,2 G,2) F,2 | (E,4 D,4) | !fermata!G,8 |] %52
w: cor * *|* con- de\-|* * * d'in|vi\- *|ta.|

